X:86
T: LOT UNS SINGE DAT NIGGE LIED
N: E1114
O: Europa, Mitteleuropa, Deutschland, Westfalen, Kreis Iserlohn
R: Luegen - Lied, Maerchen
M: 4/4
L: 1/8
K: G
 | D2D2D2D2 | D2B2G4 |
D2c2A4 | d2d2B4 |
D2D2D2D2 | D2B2G4 |
A2G2FFEE | D6z2 |
D2c2c4 | B2G2G4 |
A2F2EEFF | G2B2d4 |
D2c2c4 | B2G2G4 |
A2F2EEFF | G6z2

@@@ Tune index: 4770
